X:1
T:Pirates
T:Pirates of the Caribbean
%%score 1 { ( 2 4 ) | ( 3 5 6 ) }
L:1/8
Q:3/8=65
M:6/8
K:F
V:1 bass+15 nm="Violin"
V:2 treble nm="Piano"
V:4 treble 
V:3 bass 
V:5 bass 
V:6 bass 
V:1
 z | z6 | z6 | z6 | z6 | z6 | z6 | z6 | z4 z A,,/C,/ | D,D,D,/E,/ F,F,F,/G,/ | %10
 E,E,D,/C,/ C,/D, z/ A,,/C,/ | D,D,D,/E,/ F,F,F,/G,/ | E,E,D,/C,/ D, z A,,/C,/ | %13
 D,D,D,/F,/ G,G,G,/A,/ | B,B,A,/G,/ A,/D,/-D,D,/E,/ | F,F,G, A,/D,/-D,D,/F,/ |[M:3/8] E,E,D,/^C,/ | %17
[M:6/8] D, z4 z | z6 | z6 | z6 | A,,A,,A,, B,,/A,, z z/ | G,,G,,G,, G,,/A,, z z/ | %23
 A,,A,,A,, B,,/A,, z z/ |[M:3/8] G,,F,,E,, |[M:6/8] D,, z z4 | z6 | z6 | z6 | z2 z D,,3 | %30
 E,,3 F,,3 | G,,A,,B,, A,,B,,^C, | D, z z z z2 | z6 | z6 | z2 z D,,/D,,/F,,/F,,/A,,/A,,/ | %36
 D,D,/E,/F,/D,/ E,D,C, | D,D,/E,/F,/D,/ E,F,G, | G,G,/A,/B,/D,/ F,E,D, | E,D,C, D,2 z | %40
 A,,2 z B,,2 z | A,,A,,A,, A,,/G,, z z/ | G,,2 z F,,2 z | E,,F,,E,, D,, z2 | A,,2 z B,,2 z | %45
 A,,A,,C, A,,/G,,/ z2 | G,,2 z F,,2 z |"^rall." E,,2 F,,2 !fermata!E,,2 |[M:3/4] D,,2 z4 | z6 | %50
 z6 | z4 D,E, | F,3 E, D,2 | C,2 F,2 A,,2 | G,,3 F,, G,,2 | A,,4 z2 | %56
[Q:1/4=100]"^\n" .D,,>C,, .D,,.E,, .F,, z | .D,,>F,, .E,,.C,, .D,, z | .D,,>C,, .D,,.E,, .F,,.G,, | %59
 A,, z E,, z C,, z | D,, z4 .A,,, | D,, z4 .A,,, | D,, z4 z |[M:4/4] z4 z2 D,E, | %64
[M:3/4] F,3 G, A,2 | G,2 F,2 E,2 | F,2 G,2 A,2 | G,4 F,G, | A,3 G, F,2 | E,2 F,2 E,2 | D,3 E, C,2 | %71
 D,2 z2 D,E, | F,3 E, F,2 | G,2 F,2 G,2 | A,3 G, F,2 | D,4 D,E, | F,2 G,2 A,2 | B,2 D,2 G,2 | %78
 F,3 G, E,2 | D,3 A,, F,E, |[M:4/4] D, z z2 z4 | z8 | z8 | z8 |[M:6/8] z6 | %85
 !tenuto!.D,,.D,,.D,,/.D,,/ .D,,.D,,.D,,/.D,,/ | !tenuto!.D,,.D,,.D,,/.D,,/ .D,,.D,,.D,,/.D,,/ | %87
 !tenuto!.D,,.D,,.D,,/.D,,/ .D,,.D,,.D,,/.D,,/ | %88
 !tenuto!.E,,.E,,.E,,/.E,,/ !tenuto!.E,,.E,,.E,,/.E,,/ | %89
 !tenuto!.D,,.D,,.D,,/.D,,/ .D,,.D,,.D,,/.D,,/ | !tenuto!.D,,.D,,.D,,/.D,,/ .D,,.D,,.D,,/.D,,/ | %91
 !tenuto!.D,,.D,,.D,,/.D,,/ .D,,.D,,.D,,/.D,,/ | !tenuto!.E,,.E,,.E,,/.E,,/ E,,3 | %93
 (.!tenuto!F,.A,,/.F,)A,,/ E,/F,/E,/D,/ z | (.!tenuto!F,.A,,/.F,)A,,/ E,/F,/E,/D,/ z | %95
 (.!tenuto!F,.A,,/.F,)A,,/ E,/F,/E,/D,/E,/F,/ | .G,3/2.C3/2 PE,D,/C,/D,/E,/ | %97
 .D,,3/2.D,,3/2 .D,,3/2.D,,.C,,/ | .D,,3/2.D,,3/2 .D,,/.C,,/.D,,/.F,,/.E,,/.C,,/ | %99
 .D,,3/2.D,,3/2 .D,,3/2.D,,3/2 | .G,3/2.C3/2 PE,D,/C,/D,/E,/ |[M:3/8] D,/ z/ z2 ||[K:A][M:6/8] z6 | %103
 !^!F,,C,-<C,- C,3/2B,,A,,/ | !^!B,,E,-<E,- E,3 | !^!E,G,,-<G,,- G,,3/2F,,G,,/ | A,,3 z3 | %107
 !^!F,,C,-<C,- C,3/2B,,A,,/ | !^!B,,E,-<E,- E,3/2D,C,/ | !^!C,D,-<D,- D,3/2A,,B,,/ | C,6 | %111
 A,,F,-<F,- F,3/2E,D,/ | E,A,,-<A,,- A,,3 | C,A,-<A,- A,3/2G,F,/ | G,C,-<C,- C,3 | %115
 F,,F,-<F,- F,3/2E,F,/ | C,F,,-<F,,- F,,A,,/G,,F,,/ | F,,G,,-<G,,- G,,E,,/F,,G,,/ | F,,6 | %119
[M:4/4][Q:1/4=60] C,2 F,,2 D,2 F,,2 | A,,>A,, (3A,,B,,C, B,,2 A,,B,, | C,2 F,,2 D,2 F,,2 | %122
 B,,>B,, (3B,,A,,G,, F,,2 E,F, ||[K:E] G,2 C,2 A,2 C,2 | E,>E, (3E,F,G, F,2 E,F, | %125
 G,2 C,2 A,2 C,2 | F,>F, (3F,E,B,, =C,2 G,,F,, | G,,4 A,,4 | ^A,,8 | G,,4 A,,4 | ^A,,4 ^B,,4 | %131
 C,4 z2 (3:2:6C,/B,,/C,/E,/D,/B,,/ | C, z z4 z2 |] %133
V:2
 !2!A,/C/ | DD!2!D/E/ FFF/G/ | EED/C/ C<DA,/C/ | DDD/E/ FFF/G/ | EED/C/ D3/2 z/ A,/C/ | %5
 DDD/F/ GGG/A/ | BBA/G/ [FA]/D/-DD/E/ | FFG [FA]/D/-DD/F/ | EEF/D/ E3 | DA,D FDF | ECE DA,D | %11
 DB,D FCF | ECE DA,F, | DA,D GDG | BGB AFA | FDF AFA |[M:3/8] E^CE | %17
[M:6/8] [F,A,D][F,A,D][G,A,E] [A,DF][A,DF][B,DG] | [DFA]2 F/D/ A,3 | [DFB]2 F/D/ B,3 | %20
 A,/B,/A,/^C/D/C/ E/F/E/A/B/A/ | [DFA][DFA][DFA] [DFA]3 | [CEG][CEG][CEG] [DFA]3 | %23
 [DFA][DFA][DFA] [DFA]3 |[M:3/8] [A,^CG][A,DF][A,CE] |[M:6/8] z6 | z6 | z6 | z6 | z2 z [F,A,D]3 | %30
 [A,^CE]3 [A,DF]3 | [^CG-]3 G3 | DD/E/F/D/ EDC | DD/E/F/D/ EFG | GG/A/B/D/ FED | %35
 [A,E][B,D]C [F,A,D]3 | D3 E3 | D3 E3 | G3 FED | [A,E][B,D]C [F,A,D]3 | [FA]D/E/F/D/ [FB]D/E/F/D/ | %41
 [FA]F/G/A/F/ [EG]C/D/E/C/ | [DG]B,/C/D/B,/ [DF]D/E/F/D/ | A,=B,^C D z2 | AF/D/A, BF/D/B, | %45
 [CA]FA [EG]3 | GD/B,/G, FD/A,/F, |"^rall." z6 |[M:3/4] [F,D]3 A, D2 | [^CE]2 A,2 E2 | %50
 [A,DF]3 E D2 | [G,^CE]6 | [B,D]3 C B,2 | A,2 C2 F2 | [B,DG]6 | [^CE]4 z2 | [A,D] z z2 z [G,A,] | %57
 [A,D] z z2 z [G,A,] | [A,D] z z2 z2 | z C z C z C | D>C DE F z | D>F EC D z | D>C DE FG | %63
[M:4/4] [^CA]2 [D=B]2 [E^c]2 [Ad]2 |[M:3/4] DA, DE [DF]2 | [G,E]C EF GE | FC FG [FA]2 | %67
 [FG-]2 [EG]2 [DF][EG] | [FA]A, DE FA, | [^CE]A, CD EC | D3 F GE | D3 ^C D2 | D3 A, D2 | %73
 E2 G,2 E2 | F3 E D2 | C2 B,2 [B,D][CE] | [DF]2 [EG]2 [FA]2 | [DGB]6 | [A,DF]6 | [E,A,D]6 | %80
[M:4/4] z2 [F,A,D] z z2 [F,A,D] z | z2 [G,B,D] z z2 [G,A,E] z | z2 [F,B,D] z z2 [F,A,D] z | %83
 z2 z2 z2 [E,G,A,^C]2 |[M:6/8][K:treble] z6 | z6 | z6 | z6 | TA6 | D3/2D3/2 D3/2D3/2 | %90
 D3/2D3/2 D3/2D3/2 | D3/2D3/2 D3/2D3/2 | TA6 | %93
 !tenuto!.!4!D.!3!D.!2!D/.!1!D/ .!4!D.!3!D.!2!D/.!1!D/ | !tenuto!.D.D.D/.D/ .D.D.D/.D/ | %95
 !tenuto!.D.D.D/.D/ .D.D.D/.D/ | !tenuto!.E.EE .[ce]g<.c' | %97
 (.!tenuto![df].A/.[df])A/ [ce]/f/e/[Ad]/ z/ A/ | (.!tenuto![df].A/.[df])A/ [ce]/f/e/[Ad]/ z/ A/ | %99
 (.!tenuto![cf].A/.[cf])A/ [ce]/f/e/[Ad]/e/f/ | .[eg]3/2.c'3/2 e'>ab/c'/ | %101
[M:3/8] d'/c'/b/a/g/=f/ ||[K:A][M:6/8] !tenuto!.[Af].f.f/.f/ .f.f.f/.f/ | %103
 !tenuto!.[Af].f.f/.f/ .f.f.f/.f/ | !tenuto!.[eg].g.g/.g/ .g.g.g/.g/ | %105
 !tenuto!.[ce].e.e/.e/ .e.e.e/.e/ | !tenuto!.[Af].f.f/.f/ e'/.d'/c'/.b/.a/.g/ | %107
 !tenuto!.f.f.f/.f/ .f.f.f/.f/ | g/a/g/f/e/f/ a/b/a/g/f/g/ | !tenuto!.a.a.a/.a/ .a.a.g/.a/ | %110
 !tenuto!.b.b.a/.b/ .c'.c'.c'/.c'/ | fd'-<d'- d'3/2ab/ | c'e-<e- e3 | ac'-<c'- c'3/2d'b/ | %114
 c'g-<g- g3 |[I:staff +1] [F,A,][I:staff -1]F>f [d'f']3 | [F,A,]3 z A,/G,F,/ | %117
 F,G,-<G,- G,E,/F,G,/ | [CF]/^E/F/[DG]/F/G/ [FA]/G/A/[GB]/A/B/ | %119
[M:4/4]"^Paisible, très lié" [FAc]2 F2 [FAd]2 F2 | [CEA]EAB [GB]2 [CA][B,B] | [FAc]2 F2 [FAd]2 F2 | %122
 [EGB]2 E2 [FB]2 z2 ||[K:E] [CEG]2 C2 [CEA]2 C2 | [G,B,E]B,EF [DF]2 [G,E][F,F] | %125
 G/4F/4G3/2- G/F/E/D/ C/4^B,/4C3/2- C/D/E/C/ | F/4E/4F3/2- F/E/D/C/ =C/4_B,/4C3/2 z/ z/ z | %127
 [eg]4 [ea]4 | [e^a-]4 [fa]4 | [eg]4 [ea]4 | %130
 [e^a]4 (3:2:4[eg^b][egb][egb]/[egb]/ (3:2:4[dfgb][dfgb][dfgb]/[dfgb]/ | %131
 (3:2:4[egc'][egc'][egc']/[egc']/ (3:2:4[fgc'][fgc'][fgc']/[fgc']/ (3:2:4[egc'][egc'][egc']/[egc']/ (3:2:6c'/b/c'/e'/d'/b/ | %132
 [egc'] z z4 z2 |] %133
V:3
 z | D,3/2D,3/2 B,,3/2B,,3/2 | A,,3/2A,,3/2 D,3/2D,3/2 | B,,3/2B,,3/2 F,,3/2F,,3/2 | %4
 C,3/2C,3/2 D,A,,/D,/ z | D,3/2D,3/2 B,,3/2B,,3/2 | G,,3/2G,,3/2 D,3/2D,3/2 | %7
 B,,3/2B,,3/2 D,3/2D,3/2 | A,,3/2A,,3/2 A,,3/2A,,3/2 | D,3/2D,3/2 B,,3/2B,,3/2 | %10
 A,,3/2A,,3/2 D,3/2D,3/2 | B,,3/2B,,3/2 F,,3/2F,,3/2 | C,3/2C,3/2 D,A,,/D,/ z | %13
 D,3/2D,3/2 B,,3/2B,,3/2 | G,,3/2G,,3/2 D,3/2D,3/2 | B,,3/2B,,3/2 D,3/2D,3/2 | %16
[M:3/8] A,,3/2A,,3/2 |[M:6/8] D,3/2^C,3/2 =C,3/2B,,3/2 | [A,,,A,,]3/2 [A,,,A,,]3 [A,,,A,,]3/2 | %19
 [G,,,G,,]3/2[G,,,G,,]3/2- [G,,,G,,]3/2[G,,,G,,]3/2 | [A,,,A,,]3 [A,,,A,,]3 | %21
 [D,,D,]3/2[F,A,]3/2 D,>A,F,/D,/ | [C,,C,]3/2[E,G,]3/2 D,>A,F,/D,/ | %23
 [D,,D,]3/2[F,A,]3/2 D,>A,F,/D,/ |[M:3/8] [A,,,A,,][=B,,,=B,,][^C,,^C,] | %25
[M:6/8] [D,,D,]D,/_E,/D,/E,/ [D,,D,]D,/E,/D,/E,/ | %26
 [D,,D,]D,/_E,/D,/E,/ [D,,D,][_E,,D,]/E,/[C,,F,]/E,/ | [D,,D,]D,/_E,/D,/E,/ [D,,D,]D,/E,/D,/E,/ | %28
 [D,,D,]D,/_E,/D,/E,/ [D,,D,][_E,,D,]/E,/[C,,F,]/E,/ | %29
 [D,,D,]C,/A,,,/[A,,,A,,]!ped! D,,/A,,/D,/F,/[I:staff -1]A,/D/!ped-up! | %30
!ped![I:staff +1] A,,,/E,,/A,,/E,/A,/^C/!ped-up!!ped! D,,/A,,/D,/F,/A,/D/!ped-up! | %31
!ped! [A,,,A,,]3/2A,3/2!ped-up!!ped! [G,,G,][E,,E,][^C,,^C,]!ped-up! | [D,,D,]3 [C,,C,]3 | %33
 [D,,D,]3 [C,,C,]3 | [G,,G,]3 [F,,F,]3 | [A,,G,][B,,F,][C,E,] [D,,D,]3 | [D,,D,]3 [C,,C,]3 | %37
 [D,,D,]3 [C,,C,]3 | [G,,G,]3 [F,,F,]3 | [A,,G,][B,,F,][C,E,] [D,,D,]3 | %40
 [D,,D,]A,,D, [B,,,B,,]F,,B,, | [F,,F,]C,F, [C,,C,]3 | [G,,,G,,]3 [D,,D,]3 | %43
 [A,,,A,,]3!ped! [D,,D,]/A,,/D,/F,/A,/D/!ped-up! | %44
!ped! [D,,D,] [D,F,A,]2!ped-up!!ped! [B,,,B,,] [B,,D,F,]2!ped-up! | %45
!ped! [F,,F,] [F,A,C]2!ped-up!!ped! [C,,C,] [C,E,G,]2!ped-up! | %46
!ped! [G,,,G,,] [G,,B,,D,]2!ped-up!!ped! [D,,D,] [D,F,A,]2!ped-up! | %47
 z [A,,,A,,E,^C]2 [A,,,A,,E,D]2 !fermata![A,,,A,,E,C] |[M:3/4]!ped! [D,,A,,D,]6!ped-up! | %49
!ped! [A,,,E,,A,,]6!ped-up! |!ped! [D,,A,,D,]6!ped-up! |!ped! [A,,,E,,A,,]6!ped-up! | %52
!ped! B,,,F,, B,,D, F,2!ped-up! |!ped! [F,,F,]3 E,,2 F,,!ped-up! | [G,,D,]6 | %55
 [A,,E,]2 [=B,,G,]2 [^C,G,A,]2 | [D,F,] z z2 z [C,E,] | [D,F,] z z2 z [C,E,] | [D,F,] z z2 z2 | %59
 z [A,,E,G,] z [A,,E,G,] z [A,,E,G,] | [D,F,A,] z4 [C,E,G,A,] | [D,F,A,] z z2 z [C,E,G,A,] | %62
 [D,F,A,] z z2 z z |[M:4/4] z [A,,E,A,]2 [A,,E,A,]2 [A,,E,A,]3 | %64
[M:3/4]!ped! D,,2 A,,2 F,2!ped-up! |!ped! C,,2 G,,2 E,2!ped-up! |!ped! F,,2 C,2 A,2!ped-up! | %67
!ped! C,,2 C,2 E,2!ped-up! |!ped! D,,2 D,2 F,2!ped-up! |!ped! A,,,2 A,,=B,, ^C,2!ped-up! | %70
!ped! D,,A,, D,2!ped-up!!ped! [C,,G,,]2!ped-up! |!ped! A,,2 D,2 F,2!ped-up! | %72
!ped! D,,A,, D,F, D,2!ped-up! |!ped! C,,G,, C,E, G,2!ped-up! |!ped! F,,C, F,G, A,2!ped-up! | %75
!ped! B,,,F,, B,,C, D,2!ped-up! |!ped! D,,A,, D,F, D,2!ped-up! |!ped! G,,D, G,B, G,2!ped-up! | %78
!ped! D,,A,, D,F, D,2!ped-up! |!ped! A,,,A,, ^C,E, G,E,!ped-up! |[M:4/4] [D,,D,]2 z2 [F,,F,]2 z2 | %81
 [E,,E,]2 z2 [^C,,^C,]2 z2 | [B,,,B,,]2 z2 [A,,,A,,]2 z2 | z2 z2 [A,,,A,,]2 z2 |[M:6/8] z6 | %85
 [D,,,D,,]3- [D,,,D,,]2"^MD" (5:4:5D,,/4E,,/4F,,/4G,,/4A,,/4 | %86
"^MG" [B,,,B,,]3- [B,,,B,,]2"^MD" (3B,,/A,,/G,,/ |"^MG" [F,,,F,,]3- [F,,,F,,]2 (3!4!G,,/A,,/B,,/ | %88
 [C,,C,]3 [A,,,A,,]3 | [D,,,D,,]3- [D,,,D,,]2 E,,/4F,,/4G,,/4A,,/4 | %90
 [B,,,B,,]3- [B,,,B,,]2 (3B,,/A,,/G,,/ | [F,,,F,,]3- [F,,,F,,]2 (3G,,/A,,/B,,/ | %92
 [C,,C,]3 [A,,,A,,]3 | [D,,,D,,]3- [D,,,D,,]2 E,,/4F,,/4G,,/4A,,/4 | %94
 [B,,,B,,]3- [B,,,B,,]2 (3B,,/A,,/G,,/ | [F,,,F,,]3- [F,,,F,,]2 (3G,,/A,,/B,,/ | %96
 [C,,C,]3 [A,,,A,,]3 | [D,,,D,,]3- [D,,,D,,]2 z/ G,,/4A,,/4 | %98
 [B,,,B,,]3- [B,,,B,,]2 (3B,,/A,,/G,,/ | [F,,,F,,]3- [F,,,F,,]2 (3G,,/A,,/B,,/ | %100
 [C,,C,]3 [A,,,A,,]3 |[M:3/8] D,,3 ||[K:A][M:6/8]!ped! [F,,C,]3 F,,,3!ped-up! | %103
!ped! A,,3/2F,3/2 C,3/2F,3/2!ped-up! |!ped! G,,3/2E,3/2 B,,3/2E,3/2!ped-up! | %105
!ped! E,,3/2C,3/2 G,,3/2C,3/2!ped-up! |!ped! C,3/2F,3/2 F,,,3!ped-up! | %107
!ped! A,,3/2F,3/2 C,3/2F,3/2!ped-up! |!ped! G,,3/2E,3/2 B,,3/2E,3/2!ped-up! | %109
!ped! F,,3/2D,3/2 A,,3/2D,3/2!ped-up! |!ped! C,3/2F,3/2!ped-up!!ped! C,3/2G,3/2!ped-up! | %111
!ped! A,3/2D3/2 [F,A,]3/2D3/2!ped-up! |!ped! E,3/2A,3/2 [C,E,]3/2A,3/2!ped-up! | %113
!ped! C3/2F3/2 [A,C]3/2F3/2!ped-up! |!ped! [F,C]3/2 z3/2!ped-up!!ped! [^E,C]3/2B,3/2!ped-up! | %115
!ped! [D,,A,,]3 !arpeggio![D,A,D]3/2E,,3/2!ped-up! |!ped! [F,,C,]3 A,,3/2B,,,3/2!ped-up! | %117
 F,,G,,-<G,,- G,,B,,/A,,G,,/ | [F,,C,F,]3/2[D,,D,]3/2 [B,,,B,,]3/2[C,,C,]3/2 | %119
[M:4/4]!ped! F,,/C,/F,/C,/ G,/C,/A,/C,/!ped-up!!ped! D,,/A,,/E,/A,,/ F,/A,,/G,/D,/!ped-up! | %120
!ped! A,,/E,/B,/E,/ C/E,/D/E,/!ped-up!!ped! E,,/B,,/E,/B,,/ F,/B,,/G,/B,,/!ped-up! | %121
!ped! !arpeggio![F,,C,]/C,/F,/C,/ G,/C,/A,/C,/!ped-up!!ped! D,,/A,,/D,/A,,/ E,/A,,/F,/D,/!ped-up! | %122
!ped! !arpeggio![E,,B,,G,]/B,,/A,/B,,/ B,/B,,/C/B,,/!ped-up!!ped! B,,,/F,,/B,,/F,,/ C,/F,,/^D,/B,,/!ped-up! || %123
[K:E]!ped! C,,/G,,/C,/G,,/ D,/G,,/E,/G,,/!ped-up!!ped! A,,,/E,,/B,,/E,,/ C,/E,,/D,/A,,/!ped-up! | %124
!ped! E,,/B,,/F,/B,,/ G,/B,,/A,/B,,/!ped-up!!ped! B,,,/F,,/B,,/F,,/ C,/F,,/D,/F,,/!ped-up! | %125
!ped! !arpeggio![C,,G,,]/G,,/E,/G,,/ F,/G,,/G,/G,,/!ped-up!!ped! A,,,/E,,/E,/E,,/ D,/E,,/C,/A,,/!ped-up! | %126
!ped! !arpeggio![B,,,F,,B,,]/F,,/D,/F,,/ E,/F,,/F,/F,,/!ped-up!!ped! G,,/^B,,/F,/B,,/ E,/B,,/D,!ped-up! | %127
!f!!ped! [C,,C,]E,[G,C]E,!ped-up!!ped! [A,,,A,,]C,[E,A,]C,!ped-up! | %128
!ped! [F,,,F,,]C,[F,^A,]C [F^A]A, !///![F,,,F,,]2!ped-up! | %129
!ped! [C,,C,]E,[G,C]E,!ped-up!!ped! [A,,,A,,]C,[E,A,]C,!ped-up! | %130
!ped! [F,,,F,,]C,[F,^A,]C,!ped-up!!ped! [G,,G,]E,!ped-up!!ped![G,,G,]D,!ped-up! | %131
!ped! [C,,C,][E,G,]!ped-up!!ped![G,,G,]D!ped-up!!ped! [C,,C,]2!ped-up! [F,,,F,,][G,,,G,,] | %132
 [C,,,C,,] z z4 z2 |] %133
V:4
 x | [F,A,]3 [B,D]3 | [G,C]3 x/ [F,A,]2 x/ | [F,B,]3 [A,C]3 | [G,C]3 [F,A,]3 | [F,A,]3 [B,D]3 | %6
 [DG]3 x3 | [B,D]3 x3 | [A,^C]3 [G,C]3 | [F,A,]3 [B,D]3 | [G,C]3 [F,A,]3 | [F,B,]3 [A,C]3 | %12
 [G,C]3 [F,A,]3 | [F,A,]3 [B,D]3 | [DG]3 [DF]2 x | [B,D]3 [DF]3 |[M:3/8] [A,^C]3 |[M:6/8] x6 | x6 | %19
 x6 | x6 | x6 | x6 | x6 |[M:3/8] x3 |[M:6/8] x6 | x6 | x6 | x6 | x6 | x6 | G,A,B, A,B,^C | %32
 F, x2 G, x2 | F, x2 G, x2 | B, x2 A, x2 | x6 | F, x2 G, x2 | F, x2 G, x2 | B, x2 A, x2 | x6 | x6 | %41
 x6 | x6 | x6 | x6 | x6 | x6 | x6 |[M:3/4] x6 | x6 | x6 | x6 | x6 | x6 | x6 | A,2 =B,2 ^C2 | x6 | %57
 x6 | x6 | x6 | x6 | x6 | x6 |[M:4/4] x8 |[M:3/4] x6 | x6 | x6 | x6 | x6 | x6 | x6 | A,3 x3 | x6 | %73
 x6 | x6 | x6 | x6 | x6 | x6 | x6 |[M:4/4] x8 | x8 | x8 | x8 |[M:6/8][K:treble] x6 | x6 | x6 | x6 | %88
 x6 | A,6 | B,6 | C6 | E3 ^C3 | x6 | x6 | x6 | x6 | x6 | x6 | x6 | x6 |[M:3/8] x3 || %102
[K:A][M:6/8] x6 | x6 | x6 | x6 | x6 | x6 | x6 | x6 | f3 ^e3 | d2 d/d/ d d2 | c2 c/c/ ccc/c/ | %113
 f2 f/f/ f f2 | c2 B/c/ ^e3 | x6 | x6 | x6 | x6 |[M:4/4] x8 | x8 | x8 | x8 ||[K:E] x8 | x8 | x8 | %126
 x8 | (3:2:4ccc/c/ (3:2:4ccc/c/ (3:2:4ccc/c/ (3:2:4ccc/c/ | %128
 (3:2:4ccc/c/ (3:2:4ccc/c/ (3:2:4ccc/c/ (3:2:6c/B/c/e/d/B/ | %129
 (3:2:4ccc/c/ (3:2:4ccc/c/ (3:2:4ccc/c/ (3:2:4ccc/c/ | (3:2:4ccc/c/ (3:2:4ccc/c/ x4 | x8 | x8 |] %133
V:5
 x | D,,3 B,,,3 | A,,,3 D,,3 | B,,,3 F,,,3 | C,,3 D,,3 | D,,3 B,,,3 | G,,,3 D,,3 | B,,,3 D,,3 | %8
 A,,,3 A,,,3 | D,,3 B,,,3 | A,,,3 D,,3 | B,,,3 F,,,3 | C,,3 D,,3 | D,,3 B,,,3 | G,,,3 D,,3 | %15
 B,,,3 D,,3 |[M:3/8] A,,,3 |[M:6/8] D,,3/2^C,,3/2 =C,,3/2B,,,3/2 | x6 | x6 | x6 | x6 | x6 | x6 | %24
[M:3/8] x3 |[M:6/8] x6 | x6 | x6 | x6 | x6 | x6 | x6 | x G,A, x F,E, | x G,A, x F,E, | %34
 x A,G, x G,F, | x6 | x G,A, x F,E, | x G,A, x F,E, | x A,G, x G,F, | x6 | x6 | x6 | x6 | x6 | x6 | %45
 x6 | x6 | x6 |[M:3/4] x6 | x6 | x6 | x6 | x6 | x6 | x6 | x6 | x6 | x6 | x6 | x6 | x6 | x6 | x6 | %63
[M:4/4] x8 |[M:3/4] x6 | x6 | x6 | x6 | x6 | x6 | x6 | D,,6 | x6 | x6 | x6 | x6 | x6 | x6 | x6 | %79
 x6 |[M:4/4] x8 | x8 | x8 | x8 |[M:6/8] x6 | x6 | x6 | x6 | x6 | x6 | x6 | x6 | x6 | x6 | x6 | x6 | %96
 x6 | x2 D,/D,/ D,/ x5/2 | x2 D,/D,/ D,/ x5/2 | x2 D,/D,/ D,/ x5/2 | x6 |[M:3/8] x3 || %102
[K:A][M:6/8] x6 | F,,6 | E,,6 | C,,6 | F,,6 | F,,6 | E,,6 | D,,6 | F,,3 ^E,,3 | D,6 | A,,6 | F,6 | %114
 C,6 | x6 | x6 | C,,6 | x6 |[M:4/4] z F,G,A,[I:staff -1]D x3 | %120
[I:staff +1] A,B,CD[I:staff -1] EDCB, |[I:staff +1] A,F,G,A,[I:staff -1]D x3 | %122
[I:staff +1] G,A,B,C[I:staff -1]^D x3 ||[K:E][I:staff +1] z C,D,E,[I:staff -1]A, x3 | %124
[I:staff +1] E,F,G,A,[I:staff -1] B,A,G,F, |[I:staff +1] E,E,F,G,[I:staff -1]A, x3 | %126
[I:staff +1] B,,D,E,F,[I:staff -1]G, x3 | x8 | x8 | x8 | x8 | x8 | x8 |] %133
V:6
 x | x6 | x6 | x6 | x6 | x6 | x6 | x6 | x6 | x6 | x6 | x6 | x6 | x6 | x6 | x6 |[M:3/8] x3 | %17
[M:6/8] x6 | x6 | x6 | x6 | x6 | x6 | x6 |[M:3/8] x3 |[M:6/8] x6 | x6 | x6 | x6 | x6 | x6 | x6 | %32
 x6 | x6 | x6 | x6 | x6 | x6 | x6 | x6 | x6 | x6 | x6 | x6 | x6 | x6 | x6 | x6 |[M:3/4] x6 | x6 | %50
 x6 | x6 | x6 | x6 | x6 | x6 | x6 | x6 | x6 | x6 | x6 | x6 | x6 |[M:4/4] x8 |[M:3/4] x6 | x6 | x6 | %67
 x6 | x6 | x6 | x6 | x6 | x6 | x6 | x6 | x6 | x6 | x6 | x6 | x6 |[M:4/4] x8 | x8 | x8 | x8 | %84
[M:6/8] x6 | x6 | x6 | x6 | x6 | x6 | x6 | x6 | x6 | x6 | x6 | x6 | x6 | x6 | x6 | x6 | x6 | %101
[M:3/8] x3 ||[K:A][M:6/8] x6 | x6 | x6 | x6 | x6 | x6 | x6 | x6 | x6 | x6 | x6 | x6 | x6 | x6 | %116
 x6 | x6 | x6 |[M:4/4] x4 D,E,F,G, | x4 z E,F,G, | x4 z D,E,F, | x4 z B,,C,^D, || %123
[K:E] x4 A,,B,,C,D, | x4 z B,,C,D, | x4 z E,D,C, | x5 F,E,D, | x8 | x8 | x8 | x8 | x8 | x8 |] %133

